;FLAVOR:Marlin
;TIME:8146
;Filament used: 3.27008m
;Layer height: 0.12
;MINX:9.121
;MINY:58.314
;MINZ:0.12
;MAXX:211.103
;MAXY:152.826
;MAXZ:11.88
;TARGET_MACHINE.NAME:Creality Ender-3
;Generated with Cura_SteamEngine 5.7.0
M140 S60
M105
M190 S60
M104 S200
M105
M109 S200
M82 ;absolute extrusion mode
; Ender 3 Custom Start G-code
G92 E0 ; Reset Extruder
G28 ; Home all axes
G1 Z2.0 F3000 ; Move Z Axis up little to prevent scratching of Heat Bed
G1 X0.1 Y20 Z0.3 F5000.0 ; Move to start position
G1 X0.1 Y200.0 Z0.3 F1500.0 E15 ; Draw the first line
G1 X0.4 Y200.0 Z0.3 F5000.0 ; Move to side a little
G1 X0.4 Y20 Z0.3 F1500.0 E30 ; Draw the second line
G92 E0 ; Reset Extruder
G1 Z2.0 F3000 ; Move Z Axis up little to prevent scratching of Heat Bed
G1 X5 Y20 Z0.3 F5000.0 ; Move over to prevent blob squish
G92 E0
G92 E0
G1 F2700 E-5
;LAYER_COUNT:99
;LAYER:0
M107
G0 F6000 X40.95 Y61.777 Z0.12
;TYPE:SKIRT
G1 F2700 E0
G1 F900 X41.798 Y61.229 E0.02015
G1 X42.66 Y60.775 E0.03959
G1 X43.525 Y60.412 E0.05831
G1 X44.487 Y60.106 E0.07846
G1 X45.437 Y59.894 E0.09788
G1 X46.361 Y59.771 E0.11648
G1 X47.012 Y59.731 E0.1295
G1 X47.651 Y59.716 E0.14225
G1 X155.838 Y59.716 E2.30124
G1 X158.422 Y59.679 E2.35282
G1 X160.987 Y59.57 E2.40405
G1 X163.466 Y59.394 E2.45364
G1 X165.949 Y59.148 E2.50344
G1 X168.956 Y58.756 E2.56395
G1 X169.662 Y58.654 E2.57819
G1 X170.196 Y58.59 E2.58892
G1 X172.637 Y58.359 E2.63785
G1 X173.711 Y58.314 E2.6593
G1 X174.996 Y58.325 E2.68495
G1 X175.968 Y58.378 E2.70437
G1 X176.941 Y58.518 E2.72399
G1 X178.052 Y58.79 E2.74682
G1 X180.484 Y59.524 E2.79751
G1 X182.55 Y60.188 E2.84082
G1 X183.463 Y60.529 E2.86027
G1 X184.341 Y60.949 E2.87969
G1 X185.119 Y61.407 E2.89771
G1 X185.851 Y61.918 E2.91552
G1 X186.63 Y62.541 E2.93543
G1 X187.333 Y63.213 E2.95484
G1 X187.94 Y63.899 E2.97312
G1 X188.554 Y64.702 E2.99329
G1 X189.169 Y65.693 E3.01656
G1 X189.494 Y66.29 E3.03013
G1 X189.917 Y67.162 E3.04947
G1 X190.255 Y68.033 E3.06811
G1 X190.606 Y69.242 E3.09324
G1 X191.102 Y71.379 E3.13702
G1 X191.749 Y73.872 E3.18842
G1 X192.443 Y76.263 E3.2381
G1 X193.205 Y78.64 E3.28791
G1 X194.046 Y81.028 E3.33844
G1 X194.958 Y83.4 E3.38915
G1 X195.916 Y85.695 E3.43878
G1 X196.946 Y87.981 E3.48882
G1 X198.064 Y90.284 E3.53991
G1 X199.22 Y92.504 E3.58985
G1 X200.453 Y94.715 E3.64037
G1 X201.725 Y96.852 E3.69
G1 X203.084 Y98.996 E3.74066
G1 X204.495 Y101.089 E3.79103
G1 X205.955 Y103.128 E3.84108
G1 X207.495 Y105.154 E3.89187
G1 X208.317 Y106.188 E3.91823
G1 X208.868 Y106.951 E3.93701
G1 X209.448 Y107.938 E3.95985
G1 X209.611 Y108.255 E3.96697
G1 X210.018 Y109.14 E3.98641
G1 X210.322 Y109.99 E4.00442
G1 X210.481 Y110.547 E4.01598
G1 X210.684 Y111.355 E4.03261
G1 X210.846 Y112.063 E4.0471
G1 X211.008 Y112.951 E4.06511
G1 X211.102 Y113.993 E4.08599
G1 X211.103 Y114.966 E4.10541
G1 X211.026 Y115.866 E4.12344
G1 X210.864 Y116.813 E4.14261
G1 X210.655 Y117.771 E4.16218
G1 X210.453 Y118.579 E4.1788
G1 X210.164 Y119.508 E4.19821
G1 X209.797 Y120.404 E4.21753
G1 X209.437 Y121.113 E4.2334
G1 X209.286 Y121.383 E4.23958
G1 X208.774 Y122.211 E4.259
G1 X208.218 Y122.959 E4.2776
G1 X207.828 Y123.413 E4.28955
G1 X207.18 Y124.12 E4.30869
G1 X206.72 Y124.596 E4.3219
G1 X206.011 Y125.264 E4.34134
G1 X205.28 Y125.843 E4.35995
G1 X204.743 Y126.207 E4.37289
G1 X204.169 Y126.572 E4.38647
G1 X203.325 Y127.058 E4.4059
G1 X202.506 Y127.439 E4.42393
G1 X201.527 Y127.791 E4.44469
G1 X200.729 Y128.005 E4.46118
G1 X199.827 Y128.21 E4.47964
G1 X198.554 Y128.474 E4.50558
G1 X196.157 Y129.04 E4.55473
G1 X193.704 Y129.694 E4.60539
G1 X191.286 Y130.414 E4.65574
G1 X188.892 Y131.2 E4.70602
G1 X186.501 Y132.061 E4.75674
G1 X184.223 Y132.955 E4.80557
G1 X181.835 Y133.971 E4.85736
G1 X179.584 Y135.006 E4.90681
G1 X177.311 Y136.126 E4.95737
G1 X175.098 Y137.299 E5.00736
G1 X172.894 Y138.548 E5.05791
G1 X170.78 Y139.826 E5.10721
G1 X168.613 Y141.221 E5.15864
G1 X166.575 Y142.617 E5.20794
G1 X164.502 Y144.123 E5.25907
G1 X162.519 Y145.651 E5.30903
G1 X160.574 Y147.242 E5.35917
G1 X158.651 Y148.906 E5.40992
G1 X157.753 Y149.711 E5.43399
G1 X157.027 Y150.305 E5.45271
G1 X156.204 Y150.866 E5.47259
G1 X155.738 Y151.137 E5.48334
G1 X155.234 Y151.415 E5.49483
G1 X154.361 Y151.843 E5.51423
G1 X153.519 Y152.171 E5.53227
G1 X152.601 Y152.444 E5.55138
G1 X151.65 Y152.657 E5.57083
G1 X150.674 Y152.787 E5.59048
G1 X149.465 Y152.826 E5.61461
G1 X146.923 Y152.766 E5.66536
G1 X145.945 Y152.697 E5.68492
G1 X144.65 Y152.545 E5.71094
G1 X142.153 Y152.208 E5.76123
G1 X139.947 Y151.894 E5.80569
G1 X137.444 Y151.611 E5.85596
G1 X134.917 Y151.394 E5.90658
G1 X132.453 Y151.254 E5.95583
G1 X129.871 Y151.181 E6.00737
G1 X128.562 Y151.172 E6.0335
G1 X20.814 Y151.171 E8.18372
G1 X19.905 Y151.155 E8.20187
G1 X18.932 Y151.093 E8.22132
G1 X17.969 Y150.944 E8.24077
G1 X17.026 Y150.711 E8.26015
G1 X16.103 Y150.395 E8.27962
G1 X15.277 Y150.03 E8.29765
G1 X14.363 Y149.525 E8.31848
G1 X13.558 Y148.979 E8.3379
G1 X12.829 Y148.387 E8.35664
G1 X12.106 Y147.682 E8.37679
G1 X11.472 Y146.944 E8.3962
G1 X10.944 Y146.211 E8.41423
G1 X10.412 Y145.311 E8.4351
G1 X9.994 Y144.431 E8.45454
G1 X9.656 Y143.519 E8.47395
G1 X9.399 Y142.578 E8.49341
G1 X9.227 Y141.612 E8.51299
G1 X9.134 Y140.454 E8.53618
G1 X9.121 Y139.829 E8.54865
G1 X9.122 Y138.412 E8.57693
G1 X9.135 Y137.672 E8.5917
G1 X9.196 Y136.699 E8.61116
G1 X9.343 Y135.736 E8.6306
G1 X9.575 Y134.79 E8.65003
G1 X9.877 Y133.902 E8.66875
G1 X10.285 Y132.979 E8.68889
G1 X10.756 Y132.128 E8.7083
G1 X11.285 Y131.341 E8.72722
G1 X12.632 Y129.558 E8.77182
G1 X14.114 Y127.491 E8.82257
G1 X15.491 Y125.452 E8.87168
G1 X16.859 Y123.294 E8.92266
G1 X18.143 Y121.141 E8.97269
G1 X19.362 Y118.958 E9.02259
G1 X20.538 Y116.703 E9.07334
G1 X21.638 Y114.441 E9.12353
G1 X22.683 Y112.128 E9.17418
G1 X23.647 Y109.823 E9.22404
G1 X24.562 Y107.442 E9.27495
G1 X25.391 Y105.095 E9.32462
G1 X26.157 Y102.708 E9.37465
G1 X26.862 Y100.282 E9.42506
G1 X27.499 Y97.831 E9.4756
G1 X28.06 Y95.393 E9.52553
G1 X28.557 Y92.912 E9.57602
G1 X28.991 Y90.392 E9.62705
G1 X29.201 Y89.441 E9.64649
G1 X29.483 Y88.546 E9.66521
G1 X29.867 Y87.621 E9.6852
G1 X30.342 Y86.609 E9.70751
G1 X31.396 Y84.279 E9.75854
G1 X32.387 Y81.9 E9.80997
G1 X33.271 Y79.606 E9.85903
G1 X34.12 Y77.204 E9.90987
G1 X34.885 Y74.82 E9.95984
G1 X35.582 Y72.42 E10.00971
G1 X36.222 Y69.964 E10.06036
G1 X36.425 Y69.079 E10.07848
G1 X36.675 Y68.06 E10.09942
G1 X36.93 Y67.193 E10.11745
G1 X37.312 Y66.221 E10.1383
G1 X37.75 Y65.35 E10.15775
G1 X38.263 Y64.524 E10.17715
G1 X38.802 Y63.799 E10.19518
G1 X39.498 Y63.02 E10.21603
G1 X40.21 Y62.356 E10.23546
G1 X40.95 Y61.777 E10.25421
G0 F6000 X41.168 Y62.113
G1 F900 X41.985 Y61.583 E10.27364
G1 X42.815 Y61.144 E10.29238
G1 X43.68 Y60.781 E10.3111
G1 X44.574 Y60.496 E10.32983
G1 X45.49 Y60.291 E10.34856
G1 X46.414 Y60.168 E10.36716
G1 X47.021 Y60.131 E10.3793
G1 X47.66 Y60.116 E10.39205
G1 X155.844 Y60.116 E12.55098
G1 X158.439 Y60.079 E12.60277
G1 X161.004 Y59.97 E12.65401
G1 X163.497 Y59.793 E12.70388
G1 X166.001 Y59.545 E12.7541
G1 X169.008 Y59.153 E12.81461
G1 X169.71 Y59.051 E12.82877
G1 X170.234 Y58.988 E12.8393
G1 X172.654 Y58.759 E12.88781
G1 X173.708 Y58.714 E12.90886
G1 X174.975 Y58.724 E12.93415
G1 X175.912 Y58.774 E12.95287
G1 X176.846 Y58.907 E12.9717
G1 X177.936 Y59.173 E12.99409
G1 X180.362 Y59.905 E13.04466
G1 X182.411 Y60.563 E13.08761
G1 X183.291 Y60.89 E13.10634
G1 X184.138 Y61.294 E13.12507
G1 X184.916 Y61.752 E13.14309
G1 X185.622 Y62.246 E13.16028
G1 X186.354 Y62.831 E13.17898
G1 X187.033 Y63.478 E13.1977
G1 X187.64 Y64.164 E13.21598
G1 X188.214 Y64.913 E13.23481
G1 X188.829 Y65.904 E13.25808
G1 X189.134 Y66.465 E13.27083
G1 X189.544 Y67.307 E13.28952
G1 X189.871 Y68.145 E13.30747
G1 X190.216 Y69.333 E13.33215
G1 X190.713 Y71.47 E13.37594
G1 X191.365 Y73.983 E13.42775
G1 X192.062 Y76.385 E13.47766
G1 X192.828 Y78.773 E13.52771
G1 X193.673 Y81.172 E13.57846
G1 X194.589 Y83.554 E13.62939
G1 X195.551 Y85.859 E13.67924
G1 X196.586 Y88.156 E13.72952
G1 X197.709 Y90.469 E13.78083
G1 X198.865 Y92.689 E13.83078
G1 X200.109 Y94.92 E13.88175
G1 X201.381 Y97.057 E13.93138
G1 X202.752 Y99.22 E13.98249
G1 X204.163 Y101.313 E14.03286
G1 X205.63 Y103.361 E14.08313
G1 X207.182 Y105.403 E14.13432
G1 X207.993 Y106.423 E14.16032
G1 X208.523 Y107.154 E14.17834
G1 X209.103 Y108.141 E14.20119
G1 X209.248 Y108.422 E14.2075
G1 X209.641 Y109.275 E14.22624
G1 X209.945 Y110.125 E14.24425
G1 X210.093 Y110.645 E14.25504
G1 X210.294 Y111.444 E14.27148
G1 X210.452 Y112.135 E14.28563
G1 X210.614 Y113.023 E14.30364
G1 X210.702 Y113.994 E14.3231
G1 X210.704 Y114.932 E14.34182
G1 X210.627 Y115.832 E14.35985
G1 X210.473 Y116.728 E14.37799
G1 X210.267 Y117.674 E14.39731
G1 X210.071 Y118.461 E14.41349
G1 X209.794 Y119.357 E14.43221
G1 X209.44 Y120.223 E14.45088
G1 X209.088 Y120.918 E14.46643
G1 X208.946 Y121.173 E14.47225
G1 X208.453 Y121.972 E14.49099
G1 X207.897 Y122.72 E14.50959
G1 X207.533 Y123.143 E14.52072
G1 X206.893 Y123.842 E14.53964
G1 X206.445 Y124.305 E14.55249
G1 X205.763 Y124.95 E14.57123
G1 X205.032 Y125.529 E14.58984
G1 X204.528 Y125.87 E14.60198
G1 X203.969 Y126.226 E14.6152
G1 X203.156 Y126.695 E14.63394
G1 X202.337 Y127.076 E14.65196
G1 X201.423 Y127.405 E14.67135
G1 X200.641 Y127.615 E14.68751
G1 X199.746 Y127.818 E14.70582
G1 X198.473 Y128.082 E14.73176
G1 X196.065 Y128.651 E14.78114
G1 X193.59 Y129.311 E14.83226
G1 X191.161 Y130.034 E14.88283
G1 X188.767 Y130.82 E14.93312
G1 X186.365 Y131.685 E14.98407
G1 X184.066 Y132.587 E15.03335
G1 X181.678 Y133.603 E15.08514
G1 X179.407 Y134.647 E15.13502
G1 X177.134 Y135.768 E15.1856
G1 X174.901 Y136.951 E15.23602
G1 X172.697 Y138.2 E15.28658
G1 X170.563 Y139.49 E15.33634
G1 X168.396 Y140.885 E15.38777
G1 X166.34 Y142.293 E15.4375
G1 X164.267 Y143.799 E15.48863
G1 X162.275 Y145.334 E15.53882
G1 X160.321 Y146.932 E15.58919
G1 X158.384 Y148.608 E15.64031
G1 X157.499 Y149.402 E15.66404
G1 X156.801 Y149.975 E15.68206
G1 X156.003 Y150.52 E15.70134
G1 X155.545 Y150.787 E15.71192
G1 X155.057 Y151.056 E15.72304
G1 X154.216 Y151.47 E15.74175
G1 X153.374 Y151.798 E15.75978
G1 X152.513 Y152.054 E15.77771
G1 X151.597 Y152.261 E15.79645
G1 X150.661 Y152.387 E15.8153
G1 X149.474 Y152.426 E15.839
G1 X146.951 Y152.367 E15.88936
G1 X145.992 Y152.3 E15.90854
G1 X144.704 Y152.149 E15.93442
G1 X142.209 Y151.812 E15.98467
G1 X140.003 Y151.498 E16.02913
G1 X137.478 Y151.212 E16.07984
G1 X134.951 Y150.996 E16.13046
G1 X132.464 Y150.854 E16.18017
G1 X129.882 Y150.781 E16.23172
G1 X128.565 Y150.772 E16.258
G1 X20.821 Y150.771 E18.40815
G1 X19.93 Y150.756 E18.42593
G1 X18.993 Y150.698 E18.44467
G1 X18.065 Y150.556 E18.4634
G1 X17.155 Y150.332 E18.4821
G1 X16.265 Y150.029 E18.50086
G1 X15.439 Y149.664 E18.51889
G1 X14.587 Y149.194 E18.5383
G1 X13.81 Y148.668 E18.55703
G1 X13.081 Y148.076 E18.57577
G1 X12.409 Y147.421 E18.5945
G1 X11.797 Y146.71 E18.61322
G1 X11.269 Y145.977 E18.63124
G1 X10.773 Y145.139 E18.65068
G1 X10.369 Y144.292 E18.6694
G1 X10.042 Y143.413 E18.68812
G1 X9.793 Y142.507 E18.70687
G1 X9.626 Y141.58 E18.72567
G1 X9.534 Y140.446 E18.74837
G1 X9.521 Y139.829 E18.76069
G1 X9.522 Y138.419 E18.78883
G1 X9.534 Y137.696 E18.80326
G1 X9.591 Y136.759 E18.82199
G1 X9.732 Y135.831 E18.84072
G1 X9.954 Y134.919 E18.85945
G1 X10.256 Y134.031 E18.87817
G1 X10.635 Y133.172 E18.89691
G1 X11.088 Y132.351 E18.91562
G1 X11.604 Y131.582 E18.9341
G1 X12.951 Y129.799 E18.9787
G1 X14.439 Y127.724 E19.02965
G1 X15.829 Y125.666 E19.07921
G1 X17.203 Y123.499 E19.13042
G1 X18.487 Y121.346 E19.18044
G1 X19.717 Y119.143 E19.23079
G1 X20.893 Y116.888 E19.28155
G1 X21.998 Y114.616 E19.33196
G1 X23.047 Y112.293 E19.38283
G1 X24.016 Y109.977 E19.43293
G1 X24.935 Y107.586 E19.48405
G1 X25.768 Y105.228 E19.53395
G1 X26.538 Y102.83 E19.58422
G1 X27.246 Y100.394 E19.63484
G1 X27.886 Y97.932 E19.68561
G1 X28.45 Y95.483 E19.73576
G1 X28.949 Y92.991 E19.78647
G1 X29.382 Y90.478 E19.83736
G1 X29.583 Y89.561 E19.8561
G1 X29.853 Y88.699 E19.87412
G1 X30.229 Y87.791 E19.89374
G1 X30.704 Y86.779 E19.91605
G1 X31.76 Y84.444 E19.96719
G1 X32.756 Y82.054 E20.01886
G1 X33.644 Y79.75 E20.06813
G1 X34.497 Y77.337 E20.11921
G1 X35.266 Y74.942 E20.16941
G1 X35.966 Y72.532 E20.21949
G1 X36.609 Y70.065 E20.27036
G1 X36.814 Y69.174 E20.28861
G1 X37.059 Y68.173 E20.30918
G1 X37.314 Y67.306 E20.32721
G1 X37.67 Y66.4 E20.34664
G1 X38.09 Y65.561 E20.36536
G1 X38.584 Y64.763 E20.38409
G1 X39.123 Y64.038 E20.40212
G1 X39.771 Y63.312 E20.42154
G1 X40.457 Y62.671 E20.44027
G1 X41.168 Y62.113 E20.45831
G0 F6000 X41.415 Y62.428
G1 F900 X42.172 Y61.936 E20.47633
G1 X42.97 Y61.513 E20.49435
G1 X43.802 Y61.162 E20.51237
G1 X44.662 Y60.886 E20.5304
G1 X45.543 Y60.687 E20.54842
G1 X46.438 Y60.567 E20.56644
G1 X47.03 Y60.531 E20.57828
G1 X47.669 Y60.516 E20.59103
G1 X155.85 Y60.516 E22.7499
G1 X158.456 Y60.479 E22.80191
G1 X161.021 Y60.37 E22.85315
G1 X163.528 Y60.192 E22.9033
G1 X166.053 Y59.942 E22.95394
G1 X169.06 Y59.55 E23.01445
G1 X169.758 Y59.448 E23.02853
G1 X170.272 Y59.386 E23.03886
G1 X172.671 Y59.159 E23.08695
G1 X173.705 Y59.114 E23.1076
G1 X174.954 Y59.123 E23.13253
G1 X175.856 Y59.17 E23.15055
G1 X176.751 Y59.296 E23.16859
G1 X177.82 Y59.556 E23.19055
G1 X180.24 Y60.286 E23.24099
G1 X182.272 Y60.938 E23.28358
G1 X183.119 Y61.251 E23.3016
G1 X183.935 Y61.639 E23.31963
G1 X184.713 Y62.097 E23.33764
G1 X185.373 Y62.559 E23.35372
G1 X186.079 Y63.121 E23.37173
G1 X186.734 Y63.743 E23.38976
G1 X187.323 Y64.408 E23.40748
G1 X187.874 Y65.124 E23.42551
G1 X188.489 Y66.115 E23.44879
G1 X188.775 Y66.641 E23.46074
G1 X189.171 Y67.452 E23.47875
G1 X189.498 Y68.29 E23.4967
G1 X189.826 Y69.424 E23.52026
G1 X190.324 Y71.561 E23.56404
G1 X190.981 Y74.094 E23.61627
G1 X191.681 Y76.507 E23.66641
G1 X192.451 Y78.906 E23.71669
G1 X193.3 Y81.316 E23.76768
G1 X194.22 Y83.708 E23.81882
G1 X195.186 Y86.023 E23.86888
G1 X196.226 Y88.331 E23.9194
G1 X197.354 Y90.654 E23.97093
G1 X198.51 Y92.874 E24.02088
G1 X199.765 Y95.125 E24.07231
G1 X201.037 Y97.262 E24.12194
G1 X202.42 Y99.444 E24.1735
G1 X203.831 Y101.537 E24.22387
G1 X205.305 Y103.594 E24.27437
G1 X206.869 Y105.652 E24.32595
G1 X207.669 Y106.658 E24.3516
G1 X208.199 Y107.389 E24.36962
G1 X208.748 Y108.325 E24.39128
G1 X208.885 Y108.59 E24.39723
G1 X209.264 Y109.41 E24.41526
G1 X209.568 Y110.26 E24.43327
G1 X209.705 Y110.743 E24.44329
G1 X209.904 Y111.533 E24.45955
G1 X210.058 Y112.207 E24.47335
G1 X210.22 Y113.095 E24.49136
G1 X210.302 Y113.995 E24.50939
G1 X210.305 Y114.898 E24.52741
G1 X210.228 Y115.798 E24.54544
G1 X210.082 Y116.643 E24.56255
G1 X209.879 Y117.578 E24.58165
G1 X209.689 Y118.343 E24.59738
G1 X209.423 Y119.206 E24.6154
G1 X209.083 Y120.042 E24.63341
G1 X208.738 Y120.724 E24.64866
G1 X208.605 Y120.964 E24.65414
G1 X208.132 Y121.734 E24.67217
G1 X207.594 Y122.459 E24.69019
G1 X207.238 Y122.873 E24.70108
G1 X206.605 Y123.564 E24.71979
G1 X206.17 Y124.015 E24.73229
G1 X205.514 Y124.637 E24.75033
G1 X204.807 Y125.198 E24.76834
G1 X204.313 Y125.533 E24.78025
G1 X203.769 Y125.88 E24.79313
G1 X202.987 Y126.332 E24.81115
G1 X202.168 Y126.713 E24.82918
G1 X201.319 Y127.019 E24.84719
G1 X200.553 Y127.225 E24.86302
G1 X199.665 Y127.426 E24.88119
G1 X198.392 Y127.69 E24.90713
G1 X195.973 Y128.262 E24.95674
G1 X193.476 Y128.928 E25.00831
G1 X191.036 Y129.654 E25.05911
G1 X188.642 Y130.44 E25.1094
G1 X186.229 Y131.309 E25.16058
G1 X183.909 Y132.219 E25.21031
G1 X181.521 Y133.235 E25.2621
G1 X179.23 Y134.288 E25.31242
G1 X176.957 Y135.41 E25.363
G1 X174.704 Y136.603 E25.41388
G1 X172.5 Y137.852 E25.46443
G1 X170.346 Y139.154 E25.51466
G1 X168.179 Y140.549 E25.56609
G1 X166.105 Y141.969 E25.61625
G1 X164.032 Y143.475 E25.66739
G1 X162.031 Y145.017 E25.7178
G1 X160.068 Y146.622 E25.7684
G1 X158.117 Y148.31 E25.81988
G1 X157.245 Y149.093 E25.84327
G1 X156.547 Y149.666 E25.86129
G1 X155.801 Y150.175 E25.87932
G1 X155.352 Y150.437 E25.88969
G1 X154.88 Y150.697 E25.90044
G1 X154.071 Y151.097 E25.91845
G1 X153.229 Y151.425 E25.93649
G1 X152.424 Y151.664 E25.95324
G1 X151.543 Y151.865 E25.97128
G1 X150.648 Y151.987 E25.9893
G1 X149.483 Y152.026 E26.01256
G1 X146.979 Y151.968 E26.06255
